icons-generiche/scalable/visual-studio-code.svg

<svg fill="none" height="256" viewBox="0 0 256 256" width="256" xmlns="http://www.w3.org/2000/svg"><path d="m177.359 13.454c-.694-.0255-1.4.0163-2.112.1332l-143.9672 23.6254c-5.697.9349-9.5263 6.2389-8.5842 11.8923l30.6093 183.6841c.9421 5.653 6.2867 9.451 11.9837 8.516l143.9674-23.623c5.697-.935 9.526-6.239 8.584-11.892l-1.68-10.082 18.109-10.606-23.176-145.0207-21.679-4.8726-2.183-13.1049c-.824-4.9467-5.02-8.4717-9.872-8.6498z" fill="#000" opacity=".1"/><path d="m177.359 13.454c-.694-.0255-1.4.0163-2.112.1332l-143.9672 23.6254c-5.697.9349-9.5263 6.2389-8.5842 11.8923l30.6093 183.6841c.9421 5.653 6.2867 9.451 11.9837 8.516l143.9674-23.623c5.697-.935 9.526-6.239 8.584-11.892l-1.68-10.082 18.109-10.606-23.176-145.0207-21.679-4.8726-2.183-13.1049c-.824-4.9467-5.02-8.4717-9.872-8.6498z" fill="#0a0010" opacity=".1"/><path d="m177.359 13.454c-.694-.0255-1.4.0163-2.112.1332l-143.9672 23.6254c-5.697.9349-9.5263 6.2389-8.5842 11.8923l30.6093 183.6841c.9421 5.653 6.2867 9.451 11.9837 8.516l143.9674-23.623c5.697-.935 9.526-6.239 8.584-11.892l-1.68-10.082 18.109-10.606-23.176-145.0207-21.679-4.8726-2.183-13.1049c-.824-4.9467-5.02-8.4717-9.872-8.6498z" fill="#000" opacity=".1"/><path d="m216.414 204.414-30.072-180.4607c-.926-5.5542-6.177-9.2862-11.774-8.3677l-141.4421 23.2098c-5.5971.9184-9.3579 6.1292-8.4324 11.6834l30.0716 180.4612c.9255 5.554 6.1766 9.286 11.7736 8.368l141.4423-23.21c5.597-.918 9.358-6.129 8.433-11.684z" fill="#373538"/><path d="m58.1536 175.447h129.9204l4.605 32z" fill="#1476af"/><path d="m128.804 63.4467 27.083 6.7417 12.667 82.3336-23.751 14.925z" fill="#1476af"/><path d="m56.5535 101.722 88.2495 65.725 23.751-14.925-99.6254-55.0129z" fill="#37a6e6"/><path d="m64.5532 153.722 64.2508-90.2753 27.083 6.7417-78.2921 83.6536z" fill="#37a6e6"/><path d="m24.5366 47.1157c-.0873.8739-.0735 1.7719.0781 2.6816l30.0723 180.4607c.9255 5.554 6.1764 9.286 11.7734 8.367l141.4416-23.209c5.367-.88 9.034-5.709 8.512-11.002-.447 4.462-3.832 8.234-8.512 9.002l-141.4416 23.209c-5.597.919-10.8479-2.813-11.7734-8.367l-30.0723-180.4607c-.0381-.2286-.0557-.4545-.0781-.6816zm207.6444 134.4653-17.496 10.248.303 1.822 17.486-10.242z" fill="#373538" opacity=".2"/><path d="m128.804 63.4467-34.295 48.1873-25.58-14.1248-12.375 4.2128 2.4707 1.84 11.9043-4.0528 25.58 14.1248 34.295-48.1873 25.324 6.3047-.24-1.5625zm6.715 32.6445-1.453 1.5527 6.023 39.1601-28.135-15.535-.552.59 30.687 16.945zm-49.7873 27.8728-21.1777 29.758 3.4003.031 20.0157-28.123z" fill="#fff" opacity=".3"/><path d="m133.518 92.0912-24.117 25.7678 1.234.681 22.883-24.4488 6.235 40.5278.336.185zm-75.1209 9.0038-1.8438.627 28.4864 21.215.9297-1.307zm39.3008 29.27-20.1035 21.478-11.627-.107-1.4141 1.986 13.0411.121 20.1035-21.478 47.1051 35.082 23.75-14.924-.281-1.824-23.469 14.748z" fill="#000" opacity=".2"/><path d="m58.1541 175.447 134.5249 32-.298-2.071-125.8187-29.929z" fill="#000" opacity=".2"/><path d="m58.1541 175.447 8.4082 2h121.5117l4.307 29.929.298.071-4.605-32z" fill="#fff" opacity=".3"/><path d="m164.554 31.4467 45.231 10.1673 22.769 142.476-39.875 23.357z" fill="#37a6e6"/><path d="m176.643 15.4538c-.681-.025-1.375.018-2.075.1328l-141.443 23.209c-5.3672.8807-9.0328 5.7094-8.5098 11.002.4457-4.4619 3.8294-8.234 8.5098-9.002l141.443-23.209c.7-.1148 1.394-.1578 2.075-.1328 4.767.175 8.889 3.6401 9.699 8.5l2.144 12.8731 21.299 4.7871 22.475 140.648.293-.171-22.768-142.477-21.299-4.7871-2.144-12.8731c-.81-4.8599-4.932-8.325-9.699-8.5zm38.423 180.8792-.302.177 1.65 9.905c.038.228.056.455.078.681.088-.874.074-1.772-.078-2.681z" fill="#fff" opacity=".3"/></svg>

<svg width="256" height="256" viewBox="0 0 256 256" fill="none" xmlns="http://www.w3.org/2000/svg">
<path opacity="0.1" d="M177.359 13.454C176.665 13.4285 175.959 13.4703 175.247 13.5872L31.2798 37.2126C25.5828 38.1475 21.7535 43.4515 22.6956 49.1049L53.3049 232.789C54.247 238.442 59.5916 242.24 65.2886 241.305L209.256 217.682C214.953 216.747 218.782 211.443 217.84 205.79L216.16 195.708L234.269 185.102L211.093 40.0813L189.414 35.2087L187.231 22.1038C186.407 17.1571 182.211 13.6321 177.359 13.454V13.454Z" fill="black"/>
<path opacity="0.1" d="M177.359 13.454C176.665 13.4285 175.959 13.4703 175.247 13.5872L31.2798 37.2126C25.5828 38.1475 21.7535 43.4515 22.6956 49.1049L53.3049 232.789C54.247 238.442 59.5916 242.24 65.2886 241.305L209.256 217.682C214.953 216.747 218.782 211.443 217.84 205.79L216.16 195.708L234.269 185.102L211.093 40.0813L189.414 35.2087L187.231 22.1038C186.407 17.1571 182.211 13.6321 177.359 13.454V13.454Z" fill="#0A0010"/>
<path opacity="0.1" d="M177.359 13.454C176.665 13.4285 175.959 13.4703 175.247 13.5872L31.2798 37.2126C25.5828 38.1475 21.7535 43.4515 22.6956 49.1049L53.3049 232.789C54.247 238.442 59.5916 242.24 65.2886 241.305L209.256 217.682C214.953 216.747 218.782 211.443 217.84 205.79L216.16 195.708L234.269 185.102L211.093 40.0813L189.414 35.2087L187.231 22.1038C186.407 17.1571 182.211 13.6321 177.359 13.454V13.454Z" fill="black"/>
<path d="M216.414 204.414L186.342 23.9533C185.416 18.3991 180.165 14.6671 174.568 15.5856L33.1259 38.7954C27.5288 39.7138 23.768 44.9246 24.6935 50.4788L54.7651 230.94C55.6906 236.494 60.9417 240.226 66.5387 239.308L207.981 216.098C213.578 215.18 217.339 209.969 216.414 204.414V204.414Z" fill="#373538"/>
<path d="M58.1536 175.447H188.074L192.679 207.447L58.1536 175.447Z" fill="#1476AF"/>
<path d="M128.804 63.4467L155.887 70.1884L168.554 152.522L144.803 167.447L128.804 63.4467Z" fill="#1476AF"/>
<path d="M56.5535 101.722L144.803 167.447L168.554 152.522L68.9286 97.5091L56.5535 101.722Z" fill="#37A6E6"/>
<path d="M64.5532 153.722L128.804 63.4467L155.887 70.1884L77.5949 153.842L64.5532 153.722Z" fill="#37A6E6"/>
<path opacity="0.2" d="M24.5366 47.1157C24.4493 47.9896 24.4631 48.8876 24.6147 49.7973L54.687 230.258C55.6125 235.812 60.8634 239.544 66.4604 238.625L207.902 215.416C213.269 214.536 216.936 209.707 216.414 204.414C215.967 208.876 212.582 212.648 207.902 213.416L66.4604 236.625C60.8634 237.544 55.6125 233.812 54.687 228.258L24.6147 47.7973C24.5766 47.5687 24.559 47.3428 24.5366 47.1157V47.1157ZM232.181 181.581L214.685 191.829L214.988 193.651L232.474 183.409L232.181 181.581Z" fill="#373538"/>
<path opacity="0.3" d="M128.804 63.4467L94.509 111.634L68.929 97.5092L56.554 101.722L59.0247 103.562L70.929 99.5092L96.509 113.634L130.804 65.4467L156.128 71.7514L155.888 70.1889L128.804 63.4467ZM135.519 96.0912L134.066 97.6439L140.089 136.804L111.954 121.269L111.402 121.859L142.089 138.804L135.519 96.0912ZM85.7317 123.964L64.554 153.722L67.9543 153.753L87.97 125.63L85.7317 123.964Z" fill="white"/>
<path opacity="0.2" d="M133.518 92.0912L109.401 117.859L110.635 118.54L133.518 94.0912L139.753 134.619L140.089 134.804L133.518 92.0912ZM58.3971 101.095L56.5533 101.722L85.0397 122.937L85.9694 121.63L58.3971 101.095ZM97.6979 130.365L77.5944 151.843L65.9674 151.736L64.5533 153.722L77.5944 153.843L97.6979 132.365L144.803 167.447L168.553 152.523L168.272 150.699L144.803 165.447L97.6979 130.365Z" fill="black"/>
<path opacity="0.2" d="M58.1541 175.447L192.679 207.447L192.381 205.376L66.5623 175.447H58.1541Z" fill="black"/>
<path opacity="0.3" d="M58.1541 175.447L66.5623 177.447H188.074L192.381 207.376L192.679 207.447L188.074 175.447H58.1541Z" fill="white"/>
<path d="M164.554 31.4467L209.785 41.614L232.554 184.09L192.679 207.447L164.554 31.4467Z" fill="#37A6E6"/>
<path opacity="0.3" d="M176.643 15.4538C175.962 15.4288 175.268 15.4718 174.568 15.5866L33.125 38.7956C27.7578 39.6763 24.0922 44.505 24.6152 49.7976C25.0609 45.3357 28.4446 41.5636 33.125 40.7956L174.568 17.5866C175.268 17.4718 175.962 17.4288 176.643 17.4538C181.41 17.6288 185.532 21.0939 186.342 25.9538L188.486 38.8269L209.785 43.614L232.26 184.262L232.553 184.091L209.785 41.614L188.486 36.8269L186.342 23.9538C185.532 19.0939 181.41 15.6288 176.643 15.4538ZM215.066 196.333L214.764 196.51L216.414 206.415C216.452 206.643 216.47 206.87 216.492 207.096C216.58 206.222 216.566 205.324 216.414 204.415L215.066 196.333Z" fill="white"/>
</svg>
